X: 1
T:Father Kelly's Jig
R:double jig
M:6/8
L:1/8
K:D
f3 dfd|AdA F2F|GFG Ecd|edc d2A|!
f3 dfd|AdA F2F|GFG Ecd|1 ecA d3:|2 ecA dcB|!
|:ABA FED|F/G/AF FED|A,CE A,CE|A,CE cBA|!
FEF AFD|GFE D/E/FD|CEC A,CE|GEC D3:|!
|:F2A d2d|ede fdB|ged d2d|Bcd ecA|!
AFA d2d|ede fdB|gec Ace|gec d3:|!
